eye-arrow-left-outline.svg

<svg fill="currentColor" viewBox="0 0 24 24"><path d="M12 4.5C7 4.5 2.73 7.61 1 12c1.73 4.39 6 7.5 11 7.5.36 0 .72 0 1.08-.05a6 6 0 0 1-.08-.95c0-.36.04-.72.1-1.08-.36.04-.73.08-1.1.08-3.76 0-7.17-2.14-8.82-5.5a9.821 9.821 0 0 1 17.64 0c-.12.24-.26.45-.39.68.66.16 1.29.43 1.86.82.27-.5.51-1 .71-1.5-1.73-4.39-6-7.5-11-7.5M12 9c-1.66 0-3 1.34-3 3s1.34 3 3 3 3-1.34 3-3-1.34-3-3-3m6 6v2h4v2h-4v2l-3-3z"/></svg>

<svg  viewBox="0 0 24 24" fill="currentColor"><path  d="M12 4.5C7 4.5 2.73 7.61 1 12C2.73 16.39 7 19.5 12 19.5C12.36 19.5 12.72 19.5 13.08 19.45C13.03 19.13 13 18.82 13 18.5C13 18.14 13.04 17.78 13.1 17.42C12.74 17.46 12.37 17.5 12 17.5C8.24 17.5 4.83 15.36 3.18 12C4.83 8.64 8.24 6.5 12 6.5S19.17 8.64 20.82 12C20.7 12.24 20.56 12.45 20.43 12.68C21.09 12.84 21.72 13.11 22.29 13.5C22.56 13 22.8 12.5 23 12C21.27 7.61 17 4.5 12 4.5M12 9C10.34 9 9 10.34 9 12S10.34 15 12 15 15 13.66 15 12 13.66 9 12 9M18 15V17H22V19H18V21L15 18L18 15"/></svg>
